projects/js-packages/social-logos/src/svg/pocket.svg

<svg enable-background="new 0 0 24 24" viewBox="0 0 24 24" xmlns="http://www.w3.org/2000/svg"><path d="m21.927 4.194c-.26-.714-.945-1.194-1.705-1.194h-.01-1.721-14.652c-.747 0-1.428.47-1.694 1.17-.079.208-.119.424-.119.644v6.035l.069 1.2c.29 2.73 1.707 5.115 3.899 6.778.039.03.079.059.119.089l.025.018c1.175.859 2.491 1.441 3.91 1.727.655.132 1.325.2 1.991.2.615 0 1.232-.057 1.839-.17.073-.014.145-.028.219-.044.02-.004.042-.012.064-.023 1.359-.297 2.621-.864 3.753-1.691l.025-.018c.04-.029.08-.058.119-.089 2.192-1.664 3.609-4.049 3.898-6.778l.069-1.2v-6.034c.001-.209-.025-.416-.098-.62zm-4.235 6.287-4.704 4.512c-.266.254-.608.382-.949.382-.342 0-.684-.128-.949-.382l-4.705-4.512c-.547-.524-.565-1.392-.041-1.939s1.392-.565 1.939-.04l3.756 3.601 3.755-3.601c.547-.524 1.415-.506 1.939.04.523.547.505 1.414-.041 1.939z"/></svg>

<?xml version="1.0" encoding="iso-8859-1"?>
<!-- Generator: Adobe Illustrator 19.2.1, SVG Export Plug-In . SVG Version: 6.00 Build 0)  -->
<svg version="1.1" xmlns="http://www.w3.org/2000/svg" xmlns:xlink="http://www.w3.org/1999/xlink" x="0px" y="0px"
	 viewBox="0 0 24 24" style="enable-background:new 0 0 24 24;" xml:space="preserve">
<g id="pocket">
	<path d="M21.927,4.194C21.667,3.48,20.982,3,20.222,3h-0.01h-1.721H3.839C3.092,3,2.411,3.47,2.145,4.17
		C2.066,4.378,2.026,4.594,2.026,4.814v6.035l0.069,1.2c0.29,2.73,1.707,5.115,3.899,6.778c0.039,0.03,0.079,0.059,0.119,0.089
		l0.025,0.018c1.175,0.859,2.491,1.441,3.91,1.727c0.655,0.132,1.325,0.2,1.991,0.2c0.615,0,1.232-0.057,1.839-0.17
		c0.073-0.014,0.145-0.028,0.219-0.044c0.02-0.004,0.042-0.012,0.064-0.023c1.359-0.297,2.621-0.864,3.753-1.691l0.025-0.018
		c0.04-0.029,0.08-0.058,0.119-0.089c2.192-1.664,3.609-4.049,3.898-6.778l0.069-1.2V4.814C22.026,4.605,22,4.398,21.927,4.194z
		 M17.692,10.481l-4.704,4.512c-0.266,0.254-0.608,0.382-0.949,0.382c-0.342,0-0.684-0.128-0.949-0.382l-4.705-4.512
		C5.838,9.957,5.82,9.089,6.344,8.542c0.524-0.547,1.392-0.565,1.939-0.04l3.756,3.601l3.755-3.601
		c0.547-0.524,1.415-0.506,1.939,0.04C18.256,9.089,18.238,9.956,17.692,10.481z"/>
</g>
<g id="Layer_1">
</g>
</svg>
